storage/app/icons/phosphoricons/fill/calendar-blank-fill.svg

<svg xmlns="http://www.w3.org/2000/svg" fill="currentColor" viewBox="0 0 256 256"><path d="M208 32h-24v-8a8 8 0 0 0-16 0v8H88v-8a8 8 0 0 0-16 0v8H48a16 16 0 0 0-16 16v160a16 16 0 0 0 16 16h160a16 16 0 0 0 16-16V48a16 16 0 0 0-16-16m0 48H48V48h24v8a8 8 0 0 0 16 0v-8h80v8a8 8 0 0 0 16 0v-8h24Z"/></svg>

<svg xmlns="http://www.w3.org/2000/svg" viewBox="0 0 256 256" fill="currentColor"><path d="M208,32H184V24a8,8,0,0,0-16,0v8H88V24a8,8,0,0,0-16,0v8H48A16,16,0,0,0,32,48V208a16,16,0,0,0,16,16H208a16,16,0,0,0,16-16V48A16,16,0,0,0,208,32Zm0,48H48V48H72v8a8,8,0,0,0,16,0V48h80v8a8,8,0,0,0,16,0V48h24Z"/></svg>
